X: 316
T: Patsh Tanz "Pleskatch"
Q: 1/4=104
B: German Goldenshteyn "Shpilt klezmorimlach klingen zoln di gesalach" New York 2003 v.3 #16
Z: 2012 John Chambers <jc:trillian.mit.edu>
M: 2/4
L: 1/16
K: E
|: G2(GB) F2(FA) | G2(GB) (BA)GF | G2(GB) F2(FA) | G2F2 E4 :|
|: e2(de) (fe)dc | "^>"B2"^>"B2 "^>"B4 | G2(GB) (BA)GF | "_>"E2"_>"E2 "_>"E4 :|
